img/svg/os/mandriva.svg

<?xml version="1.0" encoding="iso-8859-1"?>
<!-- Generator: Adobe Illustrator 21.0.2, SVG Export Plug-In . SVG Version: 6.00 Build 0)  -->
<svg version="1.1" id="&#x56FE;&#x5C42;_1" xmlns="http://www.w3.org/2000/svg" xmlns:xlink="http://www.w3.org/1999/xlink" x="0px"
	 y="0px" viewBox="0 0 16 16" style="enable-background:new 0 0 16 16;" xml:space="preserve">
<path d="M2.676,4.344C1.861,5.263,1.388,6.362,1.277,7.586c-0.108,1.196,0.084,2.744,0.945,3.651
	c1.586,1.672,4.533-0.188,5.924-1.198c0.276-0.2,0.467-0.516,0.741-0.715c-1.467,1.066-4.244,2.798-5.924,1.198
	C2.093,9.693,1.966,8.15,2.008,7.028c0.047-1.27,0.572-2.456,1.409-3.4C3.191,3.884,2.904,4.088,2.676,4.344 M13.31,5.516
	c-0.048,0.09-0.071,0.145-0.04,0.198c0.033,0.057,0.21,0.336,0.21,0.336s0.173,0.282,0.21,0.336
	c0.034,0.051,0.093,0.054,0.196,0.051c0.048-0.09,0.07-0.145,0.04-0.198c-0.033-0.057-0.21-0.336-0.21-0.336
	s-0.173-0.282-0.21-0.336C13.472,5.517,13.413,5.513,13.31,5.516 M13.396,7.682c0.1-0.002,0.157-0.01,0.188-0.061
	c0.033-0.056,0.185-0.341,0.185-0.341s0.156-0.283,0.185-0.341c0.027-0.053,0.001-0.105-0.051-0.191
	c-0.1,0.002-0.157,0.01-0.187,0.061c-0.033,0.056-0.185,0.341-0.185,0.341s-0.156,0.283-0.185,0.341
	C13.319,7.545,13.344,7.597,13.396,7.682 M14.661,7.665c0.048-0.09,0.071-0.145,0.04-0.198c-0.033-0.057-0.21-0.336-0.21-0.336
	s-0.173-0.282-0.21-0.336c-0.034-0.051-0.093-0.054-0.195-0.051c-0.048,0.09-0.07,0.145-0.04,0.198
	c0.033,0.057,0.21,0.336,0.21,0.336s0.173,0.282,0.21,0.336C14.5,7.665,14.559,7.669,14.661,7.665 M15.25,6.574
	c-0.052-0.088-0.087-0.135-0.147-0.137c-0.066-0.002-0.395,0.004-0.395,0.004s-0.33,0.001-0.396,0.004
	c-0.061,0.003-0.095,0.051-0.145,0.14c0.052,0.088,0.087,0.135,0.147,0.137c0.066,0.002,0.395-0.004,0.395-0.004
	s0.33-0.001,0.396-0.004C15.166,6.711,15.2,6.663,15.25,6.574 M14.576,5.499c-0.1,0.002-0.158,0.009-0.188,0.061
	c-0.033,0.056-0.186,0.341-0.186,0.341s-0.157,0.283-0.186,0.341c-0.027,0.054-0.002,0.106,0.051,0.191
	c0.1-0.002,0.157-0.01,0.188-0.061c0.033-0.056,0.186-0.341,0.186-0.341s0.157-0.283,0.186-0.341
	C14.653,5.636,14.628,5.584,14.576,5.499 M9.765,2.227C9.728,1.983,9.586,1.953,9.452,2.161L7.857,4.633
	C7.723,4.84,7.414,4.978,7.17,4.939L4.265,4.471c-0.245-0.04-0.316,0.085-0.16,0.277l1.858,2.282
	c0.156,0.192,0.192,0.528,0.079,0.748l-1.343,2.618c-0.112,0.22-0.016,0.327,0.214,0.238l2.744-1.062
	c0.23-0.089,0.561-0.019,0.736,0.156l2.075,2.087c0.174,0.176,0.306,0.118,0.292-0.129l-0.162-2.938
	c-0.014-0.246,0.155-0.54,0.376-0.651l2.626-1.328c0.221-0.112,0.205-0.255-0.034-0.319l-2.844-0.753
	c-0.239-0.063-0.465-0.315-0.503-0.559L9.765,2.227"/>
</svg>

<svg xmlns="http://www.w3.org/2000/svg" viewBox="0 0 16 16"><title>mandriva</title><path d="M2.68,4.34a5.55,5.55,0,0,0-1.4,3.24,4.88,4.88,0,0,0,.95,3.65C3.81,12.91,6.76,11,8.15,10c.28-.2.47-.52.74-.72-1.47,1.07-4.24,2.8-5.92,1.2A4.75,4.75,0,0,1,2,7a5.44,5.44,0,0,1,1.41-3.4c-.23.26-.51.46-.74.72M13.31,5.52c0,.09-.07.14,0,.2l.21.34.21.34c0,.05.09.05.2.05s.07-.14,0-.2l-.21-.34-.21-.34c0-.05-.09-.05-.2-.05m0,0,.58.92m-.58-.92.58.92m-.08.16h0M13.4,7.68c.1,0,.16,0,.19-.06l.19-.34L14,6.94c0-.05,0-.11-.05-.19s-.16,0-.19.06l-.19.34-.19.34c0,.05,0,.11.05.19m0,0,.51-.93m-.51.93.51-.93m.76.92c0-.09.07-.14,0-.2l-.21-.34-.21-.34c0-.05-.09-.05-.2-.05s-.07.14,0,.2l.21.34.21.34c0,.05.09.05.2.05m0,0-.58-.92m.58.92-.58-.92m1.16-.17c-.05-.09-.09-.14-.15-.14h-.79c-.06,0-.09.05-.14.14s.09.14.15.14h.79c.06,0,.09-.05.14-.14m0,0H14.17m1.08,0H14.17m.41-1.09c-.1,0-.16,0-.19.06l-.19.34L14,6.24c0,.05,0,.11.05.19s.16,0,.19-.06L14.44,6l.19-.34c0-.05,0-.11-.05-.19m0,0-.51.93m.51-.93-.51.93M9.77,2.23c0-.24-.18-.27-.31-.07L7.86,4.63a.75.75,0,0,1-.69.31l-2.9-.47c-.24,0-.32.09-.16.28L6,7A.75.75,0,0,1,6,7.78L4.7,10.4c-.11.22,0,.33.21.24L7.66,9.57a.75.75,0,0,1,.74.16l2.07,2.09c.17.18.31.12.29-.13L10.6,8.75A.75.75,0,0,1,11,8.09L13.6,6.77c.22-.11.21-.25,0-.32l-2.84-.75a.75.75,0,0,1-.5-.56L9.77,2.23Zm0,0c0-.24-.18-.27-.31-.07L7.86,4.63a.75.75,0,0,1-.69.31l-2.9-.47c-.24,0-.32.09-.16.28L6,7A.75.75,0,0,1,6,7.78L4.7,10.4c-.11.22,0,.33.21.24L7.66,9.57a.75.75,0,0,1,.74.16l2.07,2.09c.17.18.31.12.29-.13L10.6,8.75A.75.75,0,0,1,11,8.09L13.6,6.77c.22-.11.21-.25,0-.32l-2.84-.75a.75.75,0,0,1-.5-.56L9.77,2.23"/></svg>
